!!!!SEGMENT: pl-sa--l-1636--118_anonim--benedixisti-domine-terram.krn
!!!cenid: 17xx:825
!!!COM: Anonim
!!!COM-rismid: pe30004985
!!!CDT:
!!!CNT:
!!!OTL: Benedixisti Domine terram
!!!PDT:
!!!AGN: Sacred
!!!SMS-siglum: PL-SA
!!!SMS-shelfmark: L 1636
!!!SMS-shelfwork: 118 W
!!!SMS-variant:
!!!SMS-altvar:
!!!NIFC-rismid: 1001100416
!!!URL-scan: http://repozytorium.nifc.pl/skany/pl-sa-nut--l1636
!!!ONB-nifc: skan 0059-0060 (s. 1-2)
**kern	**kern	**text
*part1	*part1	*part1
*staff2	*staff1	*staff1
*I"Organo	*	*
*I'Org.	*	*
*clefF4	*clefC1	*
*k[]	*k[]	*
*M2/2	*M2/2	*
*met(c|)	*met(c|)	*
=1	=1	=1
*2\right	*	*
!	!LO:SIC:o:s:=:v:all\right	!
2F\	1f/	Be-
2D\	.	.
*	*lig	*
2E\	1g\	-ne-
2C/	.	.
2F\	1a\	-di-
2E\	.	.
*	*Xlig	*
4D\	1a\	-xi-
4E\	.	.
4F\	.	.
4D\	.	.
2F\	1a\	-sti
2D\	.	.
1FF/	1a\	D(omi)-
=2	=2	=2
2.F\	1a\	-ne
4E\	.	.
1D\	1a\	ter-
2.AA/	1a\	-ram
4GG/	.	.
*	*lig	*
1FF/	1a\	.
2.F\	1cc\	.
4E\	.	.
*	*Xlig	*
1D\	1b\	.
=3	=3	=3
*	*lig	*
4FF/	1a\	tu-
4GG/	.	.
4AA/	.	.
4BB/	.	.
4C\	1g\	-am
4D\	.	.
4E\	.	.
!	!LO:SIC:o:s:=:v:nieczytelny dźwięk	!
4C\	.	.
*	*Xlig	*
*	*lig	*
4C/	1g\	.
4BB/	.	.
4AA/	.	.
4GG/	.	.
1FF/	1a\	.
*	*Xlig	*
=4	=4	=4
*	*lig	*
2BB/	1g\	a-
2E\	.	.
2D\	1f/	.
2F\	.	.
*	*Xlig	*
*	*lig	*
4C/	1g\	-ver-
4BB/	.	.
4AA/	.	.
4GG/	.	.
1FF/	1a\	.
*	*Xlig	*
2FF/	1a\	-tis-
4FF/	.	.
4GG/	.	.
2AA/	1a\	-ti
2FF/	.	.
=5	=5	=5
2.F\	1a\	cap-
4E\	.	.
1D\	1a\	-ti-
4D\	1a\	-vi-
4E\	.	.
4F\	.	.
4D\	.	.
*	*lig	*
4G\	1b\	.
4F\	.	.
4E\	.	.
4D/	.	.
!	!LO:SIC:o:s:=:v:końcówka taktu zapisana niewyraźnie	!
2C/	1cc\	.
2A\	.	.
4FF/	1a\	.
4GG/	.	.
4AA/	.	.
4FF/	.	.
*	*Xlig	*
!!LO:LB:g=original
=6	=6	=6
1C/	1g\	-ta-
1D\	1f/	-tem
*	*lig	*
2D/	1f/	.
4C/	.	.
4BB/	.	.
1AA/	1e/	Ja-
*	*Xlig	*
0D\	0d/	-cob
=7	=7	=7
*M2/2	*M2/2	*
*met(c|)	*met(c|)	*
!	!LO:SIC:o:s:=:v:klucz po kresce taktowej	!
*	*lig	*
!	!LO:SIC:o:s:=:v:klucz po kresce taktowej	!
2F\	1f/	Glo-
2D\	.	.
2E\	1g\	.
2C/	.	.
2.F\	1a\	.
4E\	.	.
*	*Xlig	*
2.D\	1a\	-ri-
4E\	.	.
2F\	1a\	-a
2FF/	.	.
=8	=8	=8
0FF/	1a\	Pa-
.	1a\	-tri
2.F\	1a\	et
4E\	.	.
4D\	1a\	Fi-
4E\	.	.
4F\	.	.
4D\	.	.
2F\	1a\	-li-
2D/	.	.
2AA/	1a\	-o
2FF/	.	.
!!LO:LB:g=original
=9	=9	=9
4F\	1a\	et
4G\	.	.
4A\	.	.
4F\	.	.
2.D\	1a\	Spi-
4E\	.	.
*	*lig	*
1F\	1a\	-ri-
2.F\	1cc\	.
4E\	.	.
*	*Xlig	*
2.D\	1a\	-tu-
4E\	.	.
2F\	1a\	-i
2FF/	.	.
=10	=10	=10
*	*lig	*
4FF/	1a\	San-
4GG/	.	.
4AA/	.	.
4BB/	.	.
4C/	1g\	.
4D/	.	.
4E\	.	.
4C/	.	.
*	*Xlig	*
*	*lig	*
4C/	1g\	-cto
4BB/	.	.
4AA/	.	.
4GG/	.	.
1FF/	1a\	.
*	*Xlig	*
=11	=11	=11
*	*lig	*
2C/	1g\	Si-
2E\	.	.
4D\	1f/	-cut
4E\	.	.
2F\	.	.
*	*Xlig	*
*	*lig	*
4C/	1g\	.
4BB/	.	.
4AA/	.	.
4GG/	.	.
1FF/	1a\	.
*	*Xlig	*
2FF/	1a\	e-
2GG/	.	.
2AA/	1a\	-rat
2FF/	.	.
!!LO:PB:g=original
=12	=12	=12
*k[b-]	*k[b-]	*
2F\	1a\	.
2E\	.	.
4D\	1a\	.
4E\	.	.
4F\	.	.
4D\	.	.
1F\	1a\	.
4FF/	1a\	.
4GG/	.	.
4AA/ 4FF/	.	.
4FF/	.	.
2.D\	1a\	.
4E\	.	.
=13	=13	=13
1F\	1a\	et
*	*lig	*
4FF/	1a\	nunc
4GG/	.	.
4AA/	.	.
4BB-/	.	.
4C/	1cc\	.
4BB-/	.	.
4AA/	.	.
4GG/	.	.
*	*Xlig	*
1FF/	1a\	.
*	*lig	*
4FF/	1a\	et
4GG/	.	.
4AA/	.	.
4BB-/	.	.
4C/	1g\	Sem-
4D/	.	.
4E/	.	.
4C/	.	.
4C/	1g\	.
4BB-/	.	.
4AA/	.	.
4GG/	.	.
1FF/	1a\	-per
*	*Xlig	*
!!LO:LB:g=original
=14	=14	=14
*	*lig	*
2C/	1g\	et
2E\	.	.
2D\	1f/	.
2E\	.	.
*	*Xlig	*
*	*lig	*
2F\	1g\	in
4C/	.	.
4BB-/	.	.
4AA/	1a\	.
4GG/	.	.
2FF/	.	.
*	*Xlig	*
2.FF/	1ayy\	Sae-
4GG/	.	.
2AA/	1a\	-cu-
2FF/	.	.
1F\	1a\	-la
=15	=15	=15
*	*lig	*
4F\	1a\	Sae-
4G\	.	.
4A\	.	.
4F\	.	.
4G\	1b-\	.
4F\	.	.
4E\	.	.
4D\	.	.
2C/	1cc\	.
2AA/	.	.
*	*Xlig	*
4FF/	1a\	-cu-
4GG/	.	.
4AA/	.	.
4FF/	.	.
2C/	1g\	-lo-
2GG/	.	.
1D\	1f/	-rum
*	*lig	*
4D\	1f/	a-
4E\	.	.
4F\	.	.
4G\	.	.
2A\	1e/	.
2AA/	.	.
*	*Xlig	*
0D\	0d/	-men
==	==	==
*-	*-	*-
!!!system-decoration: s1,s2
!!!EED: Leszek Kubiak
!!!EST: 2020-12-10
!!!ENC: Marcin Jachim
!!!END: 2020-06-14
